images/header/footer-3.svg

<svg width="30" height="31" viewBox="0 0 30 31" fill="none" xmlns="http://www.w3.org/2000/svg">
<path d="M21.3572 3.92847H8.91686C5.8857 3.92847 3.42847 6.3857 3.42847 9.41686V21.8572C3.42847 24.8884 5.8857 27.3456 8.91686 27.3456H21.3572C24.3884 27.3456 26.8456 24.8884 26.8456 21.8572V9.41686C26.8456 6.3857 24.3884 3.92847 21.3572 3.92847Z" fill="url(#paint0_radial_1007_23879)"/>
<path d="M21.3572 3.92847H8.91686C5.8857 3.92847 3.42847 6.3857 3.42847 9.41686V21.8572C3.42847 24.8884 5.8857 27.3456 8.91686 27.3456H21.3572C24.3884 27.3456 26.8456 24.8884 26.8456 21.8572V9.41686C26.8456 6.3857 24.3884 3.92847 21.3572 3.92847Z" fill="url(#paint1_radial_1007_23879)"/>
<path d="M15.1379 6.48975C12.6537 6.48975 12.3418 6.50063 11.3662 6.545C10.3924 6.58963 9.72762 6.74377 9.14603 6.96998C8.54432 7.2036 8.03399 7.51617 7.52558 8.02476C7.01672 8.53326 6.70415 9.04359 6.4698 9.64502C6.24294 10.2268 6.08863 10.8918 6.04481 11.8652C6.00118 12.8409 5.98975 13.1528 5.98975 15.6372C5.98975 18.1215 6.00072 18.4323 6.045 19.408C6.08982 20.3818 6.24395 21.0465 6.46998 21.6281C6.70379 22.2298 7.01635 22.7401 7.52494 23.2486C8.03326 23.7574 8.54359 24.0707 9.14484 24.3043C9.72688 24.5306 10.3917 24.6847 11.3654 24.7293C12.3411 24.7737 12.6527 24.7846 15.1368 24.7846C17.6213 24.7846 17.9321 24.7737 18.9078 24.7293C19.8816 24.6847 20.5471 24.5306 21.1291 24.3043C21.7305 24.0707 22.2401 23.7574 22.7484 23.2486C23.2572 22.7401 23.5697 22.2298 23.8042 21.6284C24.029 21.0465 24.1834 20.3816 24.2291 19.4081C24.273 18.4325 24.2844 18.1215 24.2844 15.6372C24.2844 13.1528 24.273 12.8411 24.2291 11.8654C24.1834 10.8915 24.029 10.2269 23.8042 9.6453C23.5697 9.04359 23.2572 8.53326 22.7484 8.02476C22.2396 7.51598 21.7307 7.20342 21.1286 6.97007C20.5454 6.74377 19.8803 6.58954 18.9065 6.545C17.9308 6.50063 17.6201 6.48975 15.1351 6.48975H15.1379ZM14.3173 8.13819C14.5609 8.13782 14.8326 8.13819 15.1379 8.13819C17.5803 8.13819 17.8697 8.14697 18.8342 8.19078C19.7261 8.23158 20.2102 8.38059 20.5326 8.50582C20.9595 8.67157 21.2639 8.86979 21.5838 9.19004C21.904 9.51019 22.1021 9.81507 22.2683 10.242C22.3935 10.564 22.5427 11.048 22.5834 11.9399C22.6272 12.9042 22.6367 13.1938 22.6367 15.6351C22.6367 18.0763 22.6272 18.366 22.5834 19.3302C22.5426 20.2221 22.3935 20.7061 22.2683 21.0282C22.1026 21.4551 21.904 21.7591 21.5838 22.0791C21.2637 22.3992 20.9597 22.5974 20.5326 22.7632C20.2105 22.889 19.7261 23.0376 18.8342 23.0784C17.8699 23.1222 17.5803 23.1317 15.1379 23.1317C12.6954 23.1317 12.4059 23.1222 11.4416 23.0784C10.5498 23.0373 10.0657 22.8882 9.74298 22.763C9.31617 22.5972 9.0112 22.399 8.69104 22.0789C8.37089 21.7587 8.17275 21.4546 8.00655 21.0275C7.88132 20.7054 7.73213 20.2213 7.69151 19.3295C7.6477 18.3652 7.63892 18.0756 7.63892 15.6328C7.63892 13.1901 7.6477 12.9019 7.69151 11.9376C7.73231 11.0458 7.88132 10.5617 8.00655 10.2392C8.17239 9.81233 8.37089 9.50745 8.69113 9.18729C9.01129 8.86714 9.31617 8.66891 9.74307 8.5028C10.0655 8.37702 10.5498 8.22838 11.4416 8.1874C12.2855 8.14925 12.6125 8.13782 14.3173 8.1359V8.13819ZM20.0207 9.65701C19.4147 9.65701 18.9231 10.1482 18.9231 10.7543C18.9231 11.3603 19.4147 11.852 20.0207 11.852C20.6267 11.852 21.1184 11.3603 21.1184 10.7543C21.1184 10.1483 20.6267 9.65664 20.0207 9.65664V9.65701ZM15.1379 10.9396C12.5437 10.9396 10.4404 13.0429 10.4404 15.6372C10.4404 18.2314 12.5437 20.3338 15.1379 20.3338C17.7322 20.3338 19.8348 18.2314 19.8348 15.6372C19.8348 13.043 17.732 10.9396 15.1377 10.9396H15.1379ZM15.1379 12.588C16.8218 12.588 18.1871 13.953 18.1871 15.6372C18.1871 17.3211 16.8218 18.6863 15.1379 18.6863C13.4539 18.6863 12.0888 17.3211 12.0888 15.6372C12.0888 13.953 13.4539 12.588 15.1379 12.588Z" fill="white"/>
<defs>
<radialGradient id="paint0_radial_1007_23879" cx="0" cy="0" r="1" gradientUnits="userSpaceOnUse" gradientTransform="translate(9.64864 29.1492) rotate(-90) scale(23.2081 21.5854)">
<stop stop-color="#FFDD55"/>
<stop offset="0.1" stop-color="#FFDD55"/>
<stop offset="0.5" stop-color="#FF543E"/>
<stop offset="1" stop-color="#C837AB"/>
</radialGradient>
<radialGradient id="paint1_radial_1007_23879" cx="0" cy="0" r="1" gradientUnits="userSpaceOnUse" gradientTransform="translate(-0.493996 5.61532) rotate(78.681) scale(10.3742 42.7626)">
<stop stop-color="#3771C8"/>
<stop offset="0.128" stop-color="#3771C8"/>
<stop offset="1" stop-color="#6600FF" stop-opacity="0"/>
</radialGradient>
</defs>
</svg>

<svg width="30" height="31" fill="none" xmlns="http://www.w3.org/2000/svg"><path d="M21.357 3.928H8.917a5.488 5.488 0 00-5.489 5.489v12.44a5.488 5.488 0 005.489 5.489h12.44a5.488 5.488 0 005.489-5.489V9.417a5.488 5.488 0 00-5.489-5.489z" fill="url(#paint0_radial_1007_23879)"/><path d="M21.357 3.928H8.917a5.488 5.488 0 00-5.489 5.489v12.44a5.488 5.488 0 005.489 5.489h12.44a5.488 5.488 0 005.489-5.489V9.417a5.488 5.488 0 00-5.489-5.489z" fill="url(#paint1_radial_1007_23879)"/><path d="M15.138 6.49c-2.484 0-2.796.01-3.772.055-.974.045-1.638.199-2.22.425a4.479 4.479 0 00-1.62 1.055 4.49 4.49 0 00-1.056 1.62c-.227.582-.381 1.247-.425 2.22-.044.976-.055 1.288-.055 3.772 0 2.485.01 2.795.055 3.771.045.974.199 1.639.425 2.22a4.483 4.483 0 001.055 1.62 4.48 4.48 0 001.62 1.056c.582.227 1.247.38 2.22.425.976.045 1.288.056 3.772.056s2.795-.011 3.77-.056c.975-.044 1.64-.198 2.222-.425a4.476 4.476 0 001.62-1.055 4.493 4.493 0 001.055-1.62c.225-.582.38-1.247.425-2.22.044-.976.055-1.287.055-3.772 0-2.484-.011-2.796-.055-3.772-.046-.973-.2-1.638-.425-2.22a4.491 4.491 0 00-1.056-1.62 4.47 4.47 0 00-1.62-1.055c-.583-.226-1.248-.38-2.221-.425-.976-.044-1.287-.055-3.772-.055h.003zm-.82 1.648h.82c2.442 0 2.732.009 3.696.053.892.04 1.376.19 1.699.315.426.166.73.364 1.05.684.321.32.52.625.685 1.052.125.322.275.806.315 1.698.044.964.054 1.254.054 3.695s-.01 2.731-.054 3.695c-.04.892-.19 1.376-.315 1.698a2.82 2.82 0 01-.684 1.051c-.32.32-.624.518-1.051.684-.323.126-.807.275-1.699.315-.964.044-1.254.054-3.696.054-2.443 0-2.732-.01-3.696-.054-.892-.04-1.376-.19-1.699-.315a2.834 2.834 0 01-1.052-.684 2.836 2.836 0 01-.684-1.052c-.126-.322-.275-.806-.315-1.698-.044-.964-.053-1.253-.053-3.696 0-2.443.009-2.731.053-3.695.04-.892.19-1.376.315-1.699.165-.427.364-.732.684-1.052.32-.32.625-.518 1.052-.684.322-.126.807-.275 1.699-.316.844-.038 1.17-.05 2.875-.051v.002zm5.703 1.519a1.098 1.098 0 100 2.196 1.098 1.098 0 000-2.196zm-4.883 1.283a4.698 4.698 0 100 9.395 4.698 4.698 0 000-9.395zm0 1.648a3.05 3.05 0 110 6.098 3.05 3.05 0 010-6.098z" fill="#fff"/><defs><radialGradient id="paint0_radial_1007_23879" cx="0" cy="0" r="1" gradientUnits="userSpaceOnUse" gradientTransform="matrix(0 -23.2081 21.5854 0 9.649 29.15)"><stop stop-color="#FD5"/><stop offset=".1" stop-color="#FD5"/><stop offset=".5" stop-color="#FF543E"/><stop offset="1" stop-color="#C837AB"/></radialGradient><radialGradient id="paint1_radial_1007_23879" cx="0" cy="0" r="1" gradientUnits="userSpaceOnUse" gradientTransform="rotate(78.681 -3.672 2.506) scale(10.3742 42.7626)"><stop stop-color="#3771C8"/><stop offset=".128" stop-color="#3771C8"/><stop offset="1" stop-color="#60F" stop-opacity="0"/></radialGradient></defs></svg>
